symbols-de/shields/motorway_7x3_z16.svg

<?xml version="1.0" encoding="UTF-8" standalone="no"?>
<svg
   xmlns:dc="http://purl.org/dc/elements/1.1/"
   xmlns:cc="http://creativecommons.org/ns#"
   xmlns:rdf="http://www.w3.org/1999/02/22-rdf-syntax-ns#"
   xmlns:svg="http://www.w3.org/2000/svg"
   xmlns="http://www.w3.org/2000/svg"
   xmlns:sodipodi="http://sodipodi.sourceforge.net/DTD/sodipodi-0.dtd"
   xmlns:inkscape="http://www.inkscape.org/namespaces/inkscape"
   width="100%"
   height="100%"
   viewBox="0 0 55.0 36.0"
   id="svg2"
   version="1.1"
   inkscape:version="0.91 r13725"
   sodipodi:docname="autobahn_7x3_z16.svg">
  <metadata
     id="metadata9">
    <rdf:RDF>
      <cc:Work
         rdf:about="">
        <dc:format>image/svg+xml</dc:format>
        <dc:type
           rdf:resource="http://purl.org/dc/dcmitype/StillImage" />
        <dc:title></dc:title>
      </cc:Work>
    </rdf:RDF>
  </metadata>
  <defs
     id="defs7" />
  <sodipodi:namedview
     pagecolor="#ffffff"
     bordercolor="#666666"
     borderopacity="1"
     objecttolerance="10"
     gridtolerance="10"
     guidetolerance="10"
     inkscape:pageopacity="0"
     inkscape:pageshadow="2"
     inkscape:window-width="1080"
     inkscape:window-height="717"
     id="namedview5"
     showgrid="false"
     inkscape:zoom="6.4181818"
     inkscape:cx="27.5"
     inkscape:cy="18"
     inkscape:window-x="221"
     inkscape:window-y="193"
     inkscape:window-maximized="0"
     inkscape:current-layer="svg2" />
  <path
     style="fill:#365eaf;fill-opacity:1;stroke:#0528a2;stroke-width:1;stroke-miterlimit:4;stroke-dasharray:none;stroke-opacity:1"
     d="m 27.5,0.5 c -0.387095,0 -0.580079,0.0036 -0.580079,0.01282 L 1.372146,2.448243 C 0.791501,2.541043 0.5,2.681334 0.5,2.866944 l 0,30.266111 c 0,0.18561 0.291501,0.325896 0.872146,0.418701 l 25.547775,1.935424 c 0,0.0093 0.192989,0.01282 0.580079,0.01282 0.387097,0 0.580079,-0.0035 0.580079,-0.01282 l 25.547775,-1.935425 c 0.580648,-0.09281 0.744851,-0.24562 0.872146,-0.418701 0,-16.253565 0,-15.906182 0,-30.266112 0,-0.185609 -0.291498,-0.325899 -0.872146,-0.4187 L 28.080079,0.512816 c 0,-0.0093 -0.192989,-0.01282 -0.580079,-0.01282 z"
     id="path6"
     inkscape:connector-curvature="0"
     sodipodi:nodetypes="sccccccsccccccs" />
</svg>

<?xml version="1.0" encoding="UTF-8"?>
<svg xmlns="http://www.w3.org/2000/svg" xmlns:xlink="http://www.w3.org/1999/xlink" width="52pt" height="48pt" viewBox="0 0 52 48" version="1.1">
<g id="surface1">
<path style="fill-rule:nonzero;fill:rgb(21.176471%,36.862745%,68.627451%);fill-opacity:1;stroke-width:1;stroke-linecap:butt;stroke-linejoin:miter;stroke:rgb(1.960784%,15.686275%,63.529412%);stroke-opacity:1;stroke-miterlimit:4;" d="M 27.5 0.500977 C 27.111629 0.500977 26.921575 0.503906 26.921575 0.512695 L 1.371695 2.449219 C 0.793269 2.540039 0.499925 2.680664 0.499925 2.868164 L 0.499925 33.131836 C 0.499925 33.319336 0.793269 33.459961 1.371695 33.550781 L 26.921575 35.487305 C 26.921575 35.496094 27.111629 35.499023 27.5 35.499023 C 27.888371 35.499023 28.078425 35.496094 28.078425 35.487305 L 53.628305 33.550781 C 54.206731 33.459961 54.371995 33.304688 54.500075 33.131836 C 54.500075 16.880859 54.500075 17.226562 54.500075 2.868164 C 54.500075 2.680664 54.206731 2.540039 53.628305 2.449219 L 28.078425 0.512695 C 28.078425 0.503906 27.888371 0.500977 27.5 0.500977 Z M 27.5 0.500977 " transform="matrix(0.945455,0,0,1.333333,0,0)"/>
</g>
</svg>
